X: 304
T: Gasp\'e Reel
M:4/4
R:reel
L:1/8
Z:Alf Warnock - alf0@rogers.com
K:D
|: "D"f2ef e2dB|AFAF B2A2|"A7"g2fg f2ed|BABc B/2c/2BA2|
"D"f2ef e2dB|AFAF B2A2|"A7"g2fg f2ed|B2c2 "D"d4:|
|:"A7"e2f2 gfe2|"D"f2g2 a4| "A7"e2f2 gfed|"G"B2c2 "A7"B/2c/2BA2|
"A7"e2f2 gfe2|"D"f2g2 a4| "A7"e2f2 gfed|B2c2 "D"d4:|
